!!!!SEGMENT: pl-wnifc--6670-n--001-009_gall-jan-karol--piesni-polskie-na-chor-meski-z-i-9-matko-niebieskiego-pana.krn
!!!cenid: 19xx:177
!!!COM: Gall, Jan Karol
!!!COM-rismID: pe50042628
!!!CDT: 1856-1912
!!!CNT: Polish
!!!GTL: Pieśni polskie na chór męski (z. I)
!!!OTL: 9. Matko Niebieskiego Pana
!!!OMV: 009
!!!PDT:
!!!AGN:
!!!YEC: Copyright 2022 Narodowy Instytut Fryderyka Chopina (https://polishscores.org)
!!!YEM: License CC-BY-4.0 (https://creativecommons.org/licenses/by/4.0)
!!!SMS-siglum: PL-Wnifc
!!!SMS-shelfmark: 6670/n
!!!SMS-variant:
!!!SMS-altvar:
!!!SMS-shelfwork: 001-009 G
!!!NIFC-rismSourceID: 1001152877
!!!NIFC-rismChildID: 1001152894
!!!NIFC-islandoraID: nifc:213182
!!!URL-pdf-islandora: https://repozytorium.nifc.pl/islandora/object/nifc:213182/datastream/PDF/view
!!!URL-scan: https://polish.musicsources.pl/pl/lokalizacje/galeria/druki-muzyczne/16895/6 @EN{Scan on Polish Music Sources Website} @PL{Skany w portalu Dziedzictwo Muzyki Polskiej w otwartym dostępie}
!!!IIIF:
!!!ONB-nifc:
!!!AIN: 1 bass 1 tenor
!!!key: G
**kern	**dynam	**kern	**text	**text	**dynam
*part2	*part2	*part1	*part1	*part1	*part1
*staff2	*	*staff1	*staff1	*staff1	*
*ICvox	*	*ICvox	*	*	*
*Ibass	*	*Itenor	*	*	*
*I"Basy.	*	*I"Tenory.	*	*	*
*I'B	*	*I'T	*	*	*
*clefF4	*	*clefG2	*	*	*
*k[f#]	*	*k[f#]	*	*	*
*G:	*	*G:	*	*	*
*M4/4	*	*M4/4	*	*	*
*met(c)	*	*met(c)	*	*	*
=1	=1	=1	=1	=1	=1
!!!OMD: Andante.
*^	*	*^	*	*	*
!	!	!LO:DY:rj	!	!	!	!	!LO:DY:a:rj
2.G/	2.GG\	p	(2dd/	2.b\	Mat-	Wszyst-	p
.	.	.	4gg/)	.	.	.	.
4G/	4GG\	.	4ee/	4cc\	-ko	-kie	.
=2	=2	=2	=2	=2	=2	=2	=2
4G/	4GG\	.	4dd/	4b\	nie-	skar-	.
!	!	!	!	!	!	!	!LO:HP:a
4G/	4G\	<	4dd/	4b\	-bies-	-by	<
4E/	4E\	[	4cc/	4g\	-kie-	co	[
4G/	4C\	.	4ee/	4cc\	-go	są	.
=3	=3	=3	=3	=3	=3	=3	=3
!	!	!	!	!	!	!	!LO:HP:a
(2G/	1D	>	(2.dd/	1a	Pa-	w nie-	>
2F#/)	.	.	.	.	.	.	.
.	.	]	4cc/)	.	.	.	]
!!LO:LB:g=original
=4	=4	=4	=4	=4	=4	=4	=4
2.G/	2.G\	.	2.b/	2.g\	-na	-bie	.
4r	4ryy	.	4r	4ryy	.	.	.
=5	=5	=5	=5	=5	=5	=5	=5
!	!	!	!	!	!	!	!LO:DY:a:rj
!	!	!LO:DY:rj	!	!	!	!	!LO:HP:a
2.G/	2.GG\	p <	(2dd/	2.b\	Ślicz-	Bóg	p <
.	.	[	4gg/)	.	.	.	[
4G/	4GG\	.	4ee/	4cc\	-naś	dał	.
=6	=6	=6	=6	=6	=6	=6	=6
4G/	4GG\	.	4dd/	4b\	i-	Pan-	.
!	!	!	!	!	!	!	!LO:HP:a
4G/	4G\	>	4dd/	4b\	-nie	-no	>
(4E/	(4E\	.	(4cc/	(4g\	po-	dla	.
4G/)	4C\)	]	4ee/)	4cc\)	-ka-	.	]
=7	=7	=7	=7	=7	=7	=7	=7
!	!	!LO:DY:rj	!	!	!	!	!LO:DY:a:rj
(2G/	1D	p	2.dd/	1a	-la-	cie-	p
2F#/)	.	.	.	.	.	.	.
.	.	.	4cc/	.	.	.	.
=8	=8	=8	=8	=8	=8	=8	=8
2.G/	2.G\	.	2.b/	2.g\	-na	-bie	.
4r	4ryy	.	4r	4ryy	.	.	.
!!LO:LB:g=original
=9	=9	=9	=9	=9	=9	=9	=9
2D/	2GG\	.	2b/	2g\	Ty	Jak	.
2D/	2BB\	.	2dd/	2g\	a-	bo-	.
=10	=10	=10	=10	=10	=10	=10	=10
2D/	2D\	.	2a/	(4g\	-nio-	-ga-	.
.	.	.	.	4e\)	.	.	.
2D/	(4D\	.	2a/	2f#\	-łów,	-ta	.
.	4C\)	.	.	.	.	.	.
=11	=11	=11	=11	=11	=11	=11	=11
2D/	2BB\	.	2dd/	2g\	ar-	zsłoń-	.
2D/	2BB\	.	2dd/	2g\	-cha-	-ca	.
=12	=12	=12	=12	=12	=12	=12	=12
2E/	2AA\	.	2cc/	2g\	-nio-	sza-	.
2D/	2D\	.	2cc/	2f#\	-łów	-ta	.
=13	=13	=13	=13	=13	=13	=13	=13
2D/	2GG\	.	2b/	2g\	swą	z gwiazd	.
2D/	2BB\	.	2dd/	2g\	go-	ko-	.
!!LO:LB:g=original
=14	=14	=14	=14	=14	=14	=14	=14
2D/	2D\	.	2a/	(4g\	-dno-	-ro-	.
.	.	.	.	4e\)	.	.	.
2D/	(4D\	.	2a/	2f#\	-ścią	-na	.
.	4C\)	.	.	.	.	.	.
=15	=15	=15	=15	=15	=15	=15	=15
!	!	!	!	!	!	!	!LO:HP:a
2D/	2BB\	<	2dd/	2g\	i	u-	<
2D/	2BB\	[	2dd/	2g\	pię-	-ple-	[
=16	=16	=16	=16	=16	=16	=16	=16
2C/	2C\	.	2ee/	2g\	-kno-	-cio-	.
2C/	2C\	.	2ee/	2g\	-ścią	-na	.
=17	=17	=17	=17	=17	=17	=17	=17
1D	1BB	.	1dd	1g	prze-	na	.
=18	=18	=18	=18	=18	=18	=18	=18
!	!	!LO:DY:rj	!	!	!	!	!LO:DY:a:rj
1D	((2AA\	p	1cc	(2.g\	-wyż-	gło-	p
!	!	!	!	!	!	!	!LO:HP:a
.	2DD\) 2D)	>	.	.	.	.	>
.	.	]	.	4f#\)	.	.	]]
=19	=19	=19	=19	=19	=19	=19	=19
1D	1GG	]	1b	1g	-szasz.	-wie	.
*v	*v	*	*	*	*	*	*
*	*	*v	*v	*	*	*
==	==	==	==	==	==
*-	*-	*-	*-	*-	*-
!!!system-decoration: [(s1,s2)]
!!!ENC: Andrzej Gręziak
!!!END: 2024-05-02
!!!EED: Andrzej Borzym
!!!EEV: 2025-03-06
